images/fluidtouch.svg

<svg fill="none" height="19" viewBox="0 0 100 19" width="100" xmlns="http://www.w3.org/2000/svg"><path clip-rule="evenodd" d="m14.9164 12.4257c0 2.9825-2.2775 5.4331-5.18826 5.7074v.0256h-9.079314c0-2.149 1.742124-3.8912 3.891134-3.8912h2.25611l.01354.0001h2.59408c.89541 0 1.62131-.7259 1.62131-1.6213 0-.8737-.691-1.5859-1.55624-1.62l.00005-.0014h-1.68647c-1.07451 0-1.94557-.871-1.94557-1.94554 0-.86788.56825-1.60303 1.35298-1.85368.18-.05751.37138-.08953.56992-.09182h.00603l.01664-.00007h.97259v-.00006h.99388c.88579-.01118 1.60039-.73272 1.60039-1.62118 0-.88667-.7117-1.60709-1.59505-1.6211l.00001-.00031h-.02604-.00034c-1.07451 0-1.94557-.87106-1.94557-1.94557s.87106-1.94557 1.94556-1.94557h.00035.18142.00027 3.06059.0003 9.0791.0003c0 2.14902-1.7421 3.89114-3.8911 3.89114h-.0004-3.2422v3.24259h5.8362v.00002h.0005c0 2.14901-1.7421 3.89115-3.8912 3.89115h-1.9455zm-12.97083-1.4008c1.07451 0 1.94557-.8711 1.94557-1.9456 0-1.07451-.87106-1.94557-1.94557-1.94557s-1.94557.87106-1.94557 1.94557c0 1.0745.87106 1.9456 1.94557 1.9456zm44.59803-5.01137c.9588 0 1.6939-.67115 1.6939-1.58198 0-.92682-.7351-1.59796-1.6939-1.59796-.9747 0-1.7098.67114-1.7098 1.59796 0 .91083.7351 1.58198 1.7098 1.58198zm-16.8528 2.73242v6.24805h-3.148v-6.24805h-1.0227v-2.10931h1.0227v-.6232c0-2.15725 1.3902-3.13201 3.4356-3.13201.5433 0 .9428.06392 1.3263.1598v2.2691c-.2077-.06391-.3995-.09587-.7191-.09587-.6232 0-.8948.35155-.8948.81496v.60722h1.6139v2.10931zm5.026 6.24805v-11.98469h-3.132v11.98469zm17.3804.2077c1.2624 0 2.1413-.6871 2.5568-1.55v1.3423h3.148v-11.98469h-3.148v4.7779c-.4634-.84692-1.2464-1.37424-2.5568-1.37424-1.9015 0-3.4835 1.45414-3.4835 4.36243v.1278c0 2.9403 1.598 4.2985 3.4835 4.2985zm-11.1392-1.502c-.4634.8949-1.2464 1.5021-2.6526 1.5021-1.598 0-2.7964-1.0067-2.7964-3.0841v-5.48099h3.148v4.93769c0 .8469.3195 1.2784 1.0546 1.2784.783 0 1.2464-.4634 1.2464-1.4542v-4.76189h3.148v8.35729h-3.148zm7.1515-7.06299v8.35729h-3.132v-8.35729zm3.6998 4.21859c0 1.2943.5273 1.9495 1.4542 1.9495.9427 0 1.4701-.6712 1.4701-1.9655v-.1279c0-1.26235-.5114-1.96545-1.4542-1.96545-.9587 0-1.4701.63918-1.4701 1.98145zm16.6205 4.3466c2.6047 0 4.65-1.6139 4.65-4.3624v-.1278c0-2.68462-2.0294-4.29856-4.634-4.29856-2.6367 0-4.6661 1.66188-4.6661 4.37836v.1279c0 2.7485 2.0454 4.2825 4.6501 4.2825zm-1.4701-4.3784c0 1.3582.4794 2.0613 1.4861 2.0613.9588 0 1.4382-.7031 1.4382-2.0294v-.1118c0-1.31037-.4634-2.01347-1.4382-2.01347-.9587 0-1.4861.65516-1.4861 1.96547zm9.229 4.3783c1.4062 0 2.1892-.6072 2.6526-1.5021v1.2943h3.148v-8.35729h-3.148v4.76189c0 .9908-.4634 1.4542-1.2464 1.4542-.7351 0-1.0547-.4315-1.0547-1.2784v-4.93769h-3.1479v5.48099c0 2.0774 1.1984 3.0841 2.7964 3.0841zm14.9333-3.5474c-.0799 2.1573-1.5021 3.5475-4.3145 3.5475-2.5088 0-4.4423-1.4222-4.4423-4.2665v-.1279c0-2.84434 2.0134-4.39436 4.5222-4.39436 2.0933 0 4.0269.89486 4.1867 3.51551h-2.9563c-.0958-.67114-.3835-1.10259-1.1505-1.10259-.9268 0-1.4062.63918-1.4062 1.91754v.1278c0 1.3583.4474 2.0454 1.4541 2.0454.7191 0 1.1985-.4474 1.2784-1.2624zm-29.0614 3.5315c.6872 0 1.2784-.1278 1.6619-.2397v-2.365c-.2716.0959-.4954.1279-.783.1279-.5113 0-.815-.2397-.815-.815v-3.14797h1.598v-2.10931h-1.598v-1.70982h-3.1479v1.70982h-.9748v2.10931h.9748v3.45157c0 2.0933 1.1185 2.9882 3.084 2.9882zm32.49-4.81v4.6181h-3.148v-11.98469h3.148v4.96966c.4634-.87888 1.3582-1.566 2.7644-1.566 1.582 0 2.6846 1.00671 2.6846 3.08406v5.49697h-3.148v-4.7939c0-.84689-.3036-1.27834-1.0546-1.27834-.783 0-1.2464.46341-1.2464 1.45414z" fill="#fff" fill-rule="evenodd"/></svg>

<svg width="100" height="19" viewBox="0 0 100 19" fill="none" xmlns="http://www.w3.org/2000/svg">
<path fill-rule="evenodd" clip-rule="evenodd" d="M14.9164 12.4257C14.9164 15.4082 12.6389 17.8588 9.72814 18.1331V18.1587H0.648826C0.648826 16.0097 2.39095 14.2675 4.53996 14.2675H6.79607L6.80961 14.2676H9.40369C10.2991 14.2676 11.025 13.5417 11.025 12.6463C11.025 11.7726 10.334 11.0604 9.46876 11.0263L9.46881 11.0249H7.78234C6.70783 11.0249 5.83677 10.1539 5.83677 9.07936C5.83677 8.21148 6.40502 7.47633 7.18975 7.22568C7.36975 7.16817 7.56113 7.13615 7.75967 7.13386H7.7657L7.78234 7.13379H8.75493V7.13373H9.74881C10.6346 7.12255 11.3492 6.40101 11.3492 5.51255C11.3492 4.62588 10.6375 3.90546 9.75415 3.89145L9.75416 3.89114H9.72812H9.72778C8.65327 3.89114 7.78221 3.02008 7.78221 1.94557C7.78221 0.87106 8.65327 0 9.72777 0H9.72812H9.90954H9.90981H12.9704H12.9707H22.0498H22.0501C22.0501 2.14902 20.308 3.89114 18.159 3.89114H18.1586H14.9164V7.13373H20.7526V7.13375H20.7531C20.7531 9.28276 19.011 11.0249 16.8619 11.0249H14.9164V12.4257ZM1.94557 11.0249C3.02008 11.0249 3.89114 10.1538 3.89114 9.0793C3.89114 8.00479 3.02008 7.13373 1.94557 7.13373C0.87106 7.13373 0 8.00479 0 9.0793C0 10.1538 0.87106 11.0249 1.94557 11.0249ZM46.5436 6.01353C47.5024 6.01353 48.2375 5.34238 48.2375 4.43155C48.2375 3.50473 47.5024 2.83359 46.5436 2.83359C45.5689 2.83359 44.8338 3.50473 44.8338 4.43155C44.8338 5.34238 45.5689 6.01353 46.5436 6.01353ZM29.6908 8.74595V14.994H26.5428V8.74595H25.5201V6.63664H26.5428V6.01344C26.5428 3.85619 27.933 2.88143 29.9784 2.88143C30.5217 2.88143 30.9212 2.94535 31.3047 3.04123V5.31033C31.097 5.24642 30.9052 5.21446 30.5856 5.21446C29.9624 5.21446 29.6908 5.56601 29.6908 6.02942V6.63664H31.3047V8.74595H29.6908ZM34.7168 14.994V3.00931H31.5848V14.994H34.7168ZM52.0972 15.2017C53.3596 15.2017 54.2385 14.5146 54.654 13.6517V14.994H57.802V3.00931H54.654V7.78721C54.1906 6.94029 53.4076 6.41297 52.0972 6.41297C50.1957 6.41297 48.6137 7.86711 48.6137 10.7754V10.9032C48.6137 13.8435 50.2117 15.2017 52.0972 15.2017ZM40.958 13.6997C40.4946 14.5946 39.7116 15.2018 38.3054 15.2018C36.7074 15.2018 35.509 14.1951 35.509 12.1177V6.63671H38.657V11.5744C38.657 12.4213 38.9765 12.8528 39.7116 12.8528C40.4946 12.8528 40.958 12.3894 40.958 11.3986V6.63671H44.106V14.994H40.958V13.6997ZM48.1095 6.63671V14.994H44.9775V6.63671H48.1095ZM51.8093 10.8553C51.8093 12.1496 52.3366 12.8048 53.2635 12.8048C54.2062 12.8048 54.7336 12.1336 54.7336 10.8393V10.7114C54.7336 9.44905 54.2222 8.74595 53.2794 8.74595C52.3207 8.74595 51.8093 9.38513 51.8093 10.7274V10.8553ZM68.4298 15.2019C71.0345 15.2019 73.0798 13.588 73.0798 10.8395V10.7117C73.0798 8.02708 71.0504 6.41314 68.4458 6.41314C65.8091 6.41314 63.7797 8.07502 63.7797 10.7915V10.9194C63.7797 13.6679 65.8251 15.2019 68.4298 15.2019ZM66.9597 10.8235C66.9597 12.1817 67.4391 12.8848 68.4458 12.8848C69.4046 12.8848 69.884 12.1817 69.884 10.8554V10.7436C69.884 9.43323 69.4206 8.73013 68.4458 8.73013C67.4871 8.73013 66.9597 9.38529 66.9597 10.6956V10.8235ZM76.1887 15.2018C77.5949 15.2018 78.3779 14.5946 78.8413 13.6997V14.994H81.9893V6.63671H78.8413V11.3986C78.8413 12.3894 78.3779 12.8528 77.5949 12.8528C76.8598 12.8528 76.5402 12.4213 76.5402 11.5744V6.63671H73.3923V12.1177C73.3923 14.1951 74.5907 15.2018 76.1887 15.2018ZM91.122 11.6544C91.0421 13.8117 89.6199 15.2019 86.8075 15.2019C84.2987 15.2019 82.3652 13.7797 82.3652 10.9354V10.8075C82.3652 7.96316 84.3786 6.41314 86.8874 6.41314C88.9807 6.41314 90.9143 7.308 91.0741 9.92865H88.1178C88.022 9.25751 87.7343 8.82606 86.9673 8.82606C86.0405 8.82606 85.5611 9.46524 85.5611 10.7436V10.8714C85.5611 12.2297 86.0085 12.9168 87.0152 12.9168C87.7343 12.9168 88.2137 12.4694 88.2936 11.6544H91.122ZM62.0606 15.1859C62.7478 15.1859 63.339 15.0581 63.7225 14.9462V12.5812C63.4509 12.6771 63.2271 12.7091 62.9395 12.7091C62.4282 12.7091 62.1245 12.4694 62.1245 11.8941V8.74613H63.7225V6.63682H62.1245V4.927H58.9766V6.63682H58.0018V8.74613H58.9766V12.1977C58.9766 14.291 60.0951 15.1859 62.0606 15.1859ZM94.5506 10.3759V14.994H91.4026V3.00931H94.5506V7.97897C95.014 7.10009 95.9088 6.41297 97.315 6.41297C98.897 6.41297 99.9996 7.41968 99.9996 9.49703V14.994H96.8516V10.2001C96.8516 9.35321 96.548 8.92176 95.797 8.92176C95.014 8.92176 94.5506 9.38517 94.5506 10.3759Z" fill="white"/>
</svg>
